!!!COM:      Bach, Johann Sebastian
!!!CDT:      1685/03/31/-1750/07/28/
!!!OPR@@GER: Das wohltemperirte Clavier
!!!OVM@@GER: Band I
!!!OPR@ENG:  Well-Tempered Clavier
!!!OVM@ENG:  Book I
!!!OTL:      Prelude
!!!OKY:      F minor
!!!ONM:      no. 12
!!!SCT:      BWV 857
!!!OMV:      1
**kern	**kern	**kern	**kern	**kern
*clefF4	*clefF4	*clefG2	*	*clefG2
*k[b-e-a-d-]	*k[b-e-a-d-]	*k[b-e-a-d-]	*	*k[b-e-a-d-]
*f:	*f:	*f:	*	*f:
*M4/4	*M4/4	*M4/4	*	*M4/4
*met(c)	*met(c)	*met(c)	*	*met(c)
*MM49	*MM49	*MM49	*MM49	*MM49
=1-	=1-	=1-	=1-	=1-
[1F	4A-	4f	1ryy	16f
.	.	.	.	16a-
.	.	.	.	16cc
.	.	.	.	16ff
.	4B-	4g	.	16g
.	.	.	.	16ff
.	.	.	.	16een
.	.	.	.	16gg
.	4c	4a-	.	16a-
.	.	.	.	16cc
.	.	.	.	16ffn
.	.	.	.	16ee
.	4A-	16ff	.	4ff
.	.	16cc	.	.
.	.	16b-	.	.
.	.	16a-	.	.
=2	=2	=2	=2	=2
2F]	4B-	16dd-	1ryy	[4dd-
.	.	16a-	.	.
.	.	16g	.	.
.	.	16b-	.	.
.	4G	4en	.	16dd-]
.	.	.	.	16dd-
.	.	.	.	16cc
.	.	.	.	16b-
4F	16F	8f	.	8.a-
.	16A-	.	.	.
.	16c	8r	.	.
.	16f	.	.	16b-
4G	16G	4ryy	.	8.b-W
.	16f	.	.	.
.	16en	.	.	.
.	16g	.	.	32a-
.	.	.	.	32b-
=3	=3	=3	=3	=3
4A-	8A-	16cc	1ryy	4cc
.	.	16a-	.	.
.	8ryy	16en	.	.
.	.	16f	.	.
4B-	4ryy	4d-	.	16r
.	.	.	.	16dd-
.	.	.	.	16g
.	.	.	.	16b-
4C	16C	8c	.	8.e
.	16En	.	.	.
.	16G	8r	.	.
.	16c	.	.	16f
4D-	16D-	4ryy	.	8.fW
.	16c	.	.	.
.	16B-	.	.	.
.	16d-	.	.	32e
.	.	.	.	32f
=4	=4	=4	=4	=4
4E	8En	4g	1ryy	16g
.	.	.	.	16cc
.	8G	.	.	16b-
.	.	.	.	[16dd-
8c	4ryy	4en	.	16dd-]
.	.	.	.	16dd-
8C	.	.	.	16cc
.	.	.	.	16b-
4FF	16FF	4e-	.	8.an
.	16AAn	.	.	.
.	16C	.	.	.
.	16F	.	.	16b-
4GG-	16GG-X	4d-	.	8.b-W
.	16F	.	.	.
.	16E-	.	.	.
.	16G-X	.	.	32a
.	.	.	.	32b-
=5	=5	=5	=5	=5
4AA	8AAn	16r	1ryy	[2cc
.	.	16f	.	.
.	8C	16e-	.	.
.	.	[16g-	.	.
8AA	4AA	16g-]	.	.
.	.	16g-	.	.
8FF	.	16f	.	.
.	.	16e-	.	.
[4BB-	2ryy	[2d-	.	16cc]
.	.	.	.	16cc
.	.	.	.	16b-
.	.	.	.	16dd-
16BB-]	.	.	.	8gn
16BB-	.	.	.	.
16C	.	.	.	8a-W
16D-	.	.	.	.
=6	=6	=6	=6	=6
8GG	4ryy	16d-]	1ryy	[2b-
.	.	16c	.	.
8BB-	.	16d-	.	.
.	.	[16f	.	.
8E-	8G	16f]	.	.
.	.	16f	.	.
8EE-	8r	16e-	.	.
.	.	16d-	.	.
4AA-	16AA-	4c	.	16b-]
.	16C	.	.	16a-
.	16E-	.	.	[8cc
.	16A-	.	.	.
4BB-	16BB-	4d-	.	16cc]
.	16A-	.	.	16b-
.	16G	.	.	[8dd-
.	16B-	.	.	.
=7	=7	=7	=7	=7
4C	16C	4e-	1ryy	16dd-]
.	16E-	.	.	16cc
.	16G	.	.	[8ee-
.	16c	.	.	.
4D-	16D-	4f	.	16ee-]
.	16c	.	.	16dd-
.	16B-	.	.	[8ff
.	16d-	.	.	.
4E-	16E-	8g	.	16ff]
.	16G	.	.	16ee-
.	16B-	8r	.	16dd-
.	16e-	.	.	16cc
4F	16F	4ryy	.	16b-
.	16e-	.	.	16g
.	16d-	.	.	16a-
.	16f	.	.	16dd-
=8	=8	=8	=8	=8
4G	16G	2ryy	1ryy	[4b-W
.	16f	.	.	.
.	16e-	.	.	.
.	16d-	.	.	.
8A-	2c	.	.	16b-]
.	.	.	.	16e-
8G	.	.	.	16f
.	.	.	.	16g
8F	.	4ryy	.	16a-
.	.	.	.	16g
8D-	.	.	.	16a-
.	.	.	.	16ff
4E-	4B-W	16r	.	8.ee-
.	.	16a-	.	.
.	.	8g	.	.
.	.	.	.	16dd-
=9	=9	=9	=9	=9
[4AA-	[4A-	1ryy	1ryy	16cc
.	.	.	.	16a-
.	.	.	.	16cc
.	.	.	.	16een
16AA-]	16A-]	.	.	16ff
16A-	16r	.	.	16gg
16G	8r	.	.	16ee
16F	.	.	.	16ff
4E	16En	.	.	[2gg
.	16G	.	.	.
.	16B-	.	.	.
.	16d-	.	.	.
4C	16C	.	.	.
.	16F	.	.	.
.	16En	.	.	.
.	16G	.	.	.
=10	=10	=10	=10	=10
[4F	2A-	1ryy	1ryy	16gg]
.	.	.	.	16cc
.	.	.	.	16ff
.	.	.	.	16aa-
16F]	.	.	.	16ddn
16F	.	.	.	16ff
16E-X	.	.	.	16bn
16Dn	.	.	.	16cc
4G	16G	.	.	8.bw
.	16Bn	.	.	.
.	16dn	.	.	.
.	16g	.	.	16cc
4A-	16A-	.	.	8.ccW
.	16g	.	.	.
.	16f	.	.	.
.	16a-	.	.	32b
.	.	.	.	32cc
=11	=11	=11	=11	=11
*	*	*staff:8	*	*
4B	8Bn	4dd	1ryy	16ddn
.	.	.	.	16gg
.	8dn	.	.	16ff
.	.	.	.	[16aa-
8g	4g	4bn	.	16aa-]
.	.	.	.	16aa-
8G	.	.	.	16gg
.	.	.	.	16ff
8c	[2c	8ee-	.	16r
.	.	.	.	8ccc
8A-	.	8ff	.	.
.	.	.	.	16bbn
8E-	.	16r	.	4ccc
.	.	16gg	.	.
8F	.	16aa-	.	.
.	.	16ff	.	.
=12	=12	=12	=12	=12
2G	4.c]	16ee-	1ryy	[4ee-
.	.	16bn	.	.
.	.	16cc	.	.
.	.	16f#	.	.
.	.	8.g	.	16ee-]
.	.	.	.	16cc
.	8Bn	.	.	8ddn
.	.	[16fn	.	.
2C	8c	16f]	.	2cc
.	.	16f	.	.
.	[8G	16en	.	.
.	.	16g	.	.
.	16G]	4c	.	.
.	16F	.	.	.
.	16En	.	.	.
.	16G	.	.	.
=13	=13	=13	=13	=13
4AAn	8r	4f	1ryy	16f
.	.	.	.	16an
.	4F	.	.	16cc
.	.	.	.	[16ee-
4FF	.	4a	.	16ee-]
.	.	.	.	16gg-
.	8F	.	.	16cc
.	.	.	.	16ee-
4BB-	16BB-	8r	.	4.dd-X
.	16D-	.	.	.
.	16F	8b-	.	.
.	[16B-	.	.	.
4C	16B-]	4en	.	.
.	16B-	.	.	.
.	16A-	.	.	[8cc
.	16c	.	.	.
=14	=14	=14	=14	=14
*	*	*	*staff:6	*
*	*	*	*clefG2	*
*	*	*	*k[b-e-a-d-]	*
8Dn	8F	8f	2ryy	16cc]
.	.	.	.	16b-
8En	8G	8r	.	16g
.	.	.	.	16en
4F	4A-	8r	.	16c
.	.	.	.	16e
.	.	8f	.	16f
.	.	.	.	16bn
[4C	2G	16r	8ryy	4cc
.	.	16f	.	.
.	.	16en	[8e	.
.	.	16g	.	.
8.C]	.	4ryy	4e]	16b-
.	.	.	.	16dd-
.	.	.	.	16cc
16D-	.	.	.	16b-
=15	=15	=15	=15	=15
8E-X	8F	4ryy	1ryy	16an
.	.	.	.	16f
8e-	8ryy	.	.	16a
.	.	.	.	16cc
8d-	4ryy	16ff	.	8.ff
.	.	16b-	.	.
8c	.	8a	.	.
.	.	.	.	16ee-
16B-	4B-	16r	.	[4dd-
16F	.	16a-	.	.
16D-	.	16g	.	.
[16BB-	.	16b-	.	.
16BB-]	4G	8en	.	16dd-]
16C	.	.	.	8cc
16D-	.	8f	.	.
16BB-	.	.	.	[16b-
=16	=16	=16	=16	=16
4.C	16r	8.en	1ryy	16b-]
.	16G	.	.	16dd-
.	16A-	.	.	8cc
.	16Bn	[16f	.	.
.	2c	16f]	.	8.a-
.	.	16f	.	.
8C	.	8en	.	.
.	.	.	.	16g
2D-	.	4f	.	16f
.	.	.	.	16a-
.	.	.	.	16cc
.	.	.	.	[16ff
.	4B-	4g	.	16ff]
.	.	.	.	16ff
.	.	.	.	16een
.	.	.	.	16gg
=17	=17	=17	=17	=17
[1C	4c	4a-	1ryy	16a-
.	.	.	.	16cc
.	.	.	.	16ff
.	.	.	.	16een
.	4A-	16ff	.	4ff
.	.	16cc	.	.
.	.	16b-	.	.
.	.	16a-	.	.
.	4B-	16dd-	.	[4dd-
.	.	16a-	.	.
.	.	16g	.	.
.	.	16b-	.	.
.	4G	4en	.	16dd-]
.	.	.	.	16dd-
.	.	.	.	16cc
.	.	.	.	16b-
=18	=18	=18	=18	=18
1C_	4A-	16f	1ryy	[4a-
.	.	16e-X	.	.
.	.	16dn	.	.
.	.	16f	.	.
.	4F	4Bn	.	16a-]
.	.	.	.	16a-
.	.	.	.	16g
.	.	.	.	16f
.	4G	16r	.	2en
.	.	16c	.	.
.	.	16B-	.	.
.	.	16d-	.	.
.	4En	16G	.	.
.	.	16d-	.	.
.	.	16c	.	.
.	.	16B-	.	.
=19	=19	=19	=19	=19
*	*	*clefF4	*	*
1C_	4F	4A-	1ryy	16r
.	.	.	.	16cc
.	.	.	.	16b-
.	.	.	.	16dd-
.	4G	4B-	.	16en
.	.	.	.	16dd-
.	.	.	.	16cc
.	.	.	.	16b-
.	4A-	4c	.	16a-
.	.	.	.	16gg
.	.	.	.	16ff
.	.	.	.	16aa-
.	4F	4A-	.	16bn
.	.	.	.	16aa-
.	.	.	.	16gg
.	.	.	.	16ff
=20	=20	=20	=20	=20
1C_	4G	4B-	1ryy	16een
.	.	.	.	16ff
.	.	.	.	16gg
.	.	.	.	16ee
.	4En	4G	.	16bb-
.	.	.	.	16dd-
.	.	.	.	16cc
.	.	.	.	16b-
.	2F	4c	.	16a-
.	.	.	.	16b-
.	.	.	.	16cc
.	.	.	.	16f
.	.	4Bn	.	16ddn
.	.	.	.	16a-
.	.	.	.	16g
.	.	.	.	16f
=21	=21	=21	=21	=21
*	*	*staff:2	*staff:2	*
*	*	*clefG2	*	*
4C]	16r	4G	2ryy	4en
.	16c	.	.	.
.	16G	.	.	.
.	16B-	.	.	.
16r	4A-	4ryy	.	2f
16F	.	.	.	.
*MM47	*MM47	*MM47	*MM47	*MM47
16BBn	.	.	.	.
16Dn	.	.	.	.
2CC	8G	4ryy	16r	.
.	.	.	16dn	.
.	8F	.	16Bn	.
.	.	.	16c	.
*MM44	*MM44	*MM44	*MM44	*MM44
.	4G	16ryy	8ryy	16r
.	.	8.B-	.	16B-X
.	.	.	8c	16c
.	.	.	.	16en
=22	=22	=22	=22	=22
1FF	1F	1An;y	1c;y	1f;
==	==	==	==	==
*-	*-	*-	*-	*-
!!!AFR:  prelude
!!!EFL:  23/96
!!!END:  1994/01/13/
!!!VID:  3962270082 Bach, BWV 857-01
!!!AST:  Baroque
!!!OCY:  Deutschland
!!!ODT:  1722///
!!!PDT:  1801///
!!!EED:  Walter Hewlett
!!!ENC:  Walter Hewlett
!!!YOR:  Bach Gesellschaft Edition xiv
!!!AFT:  enhanced SCORE
!!!RDT:  2011/10/07/ by Andreas Kornstaedt using massScr2hmd
!!!SCA1: Thematisch-systematisches Verzeichnis der musikalischen Werke 
!!!SCA2: Johann Sebastian Bach: Bach-Werke-Verzeichnis (Schmieder)
!!!YEC1: Copyright 1994, 2000 Center for Computer Assisted Research 
!!!YEC2: in the Humanities
!!!YEM1: Rights to all derivative editions reserved.
!!!YEM2: Refer to licensing agreement for further details.
!!!YEN:  United States of America
!!!ref:  @{OTL}, @{SCT}
!!muse2ps: T^@{OTL} @{ONM} in @{OKY}^C^J.S. Bach\n@{SCT}-@{OMV}^
!!muse2ps: u^@{OPR@ENG}, @{OVM@ENG}^j
